X: 27
T: Praeludia organi op. 5 – Allegro moderato
C: Franciszek Walczyński
%%abc-version 2.0
%%abcx-abcm2ps-target-version 5.9.1 (29 Sep 2008)
%%abc-creator hum2abc beta
%%abcx-conversion-date 2021/10/04 07:38:39
%%abc-edited-by Andrzej Borzym
%%abc-edited-by Krzysztof Stępień
%%abcx-initial-encoding-date 2021-07-26
%%humdrum-veritas 571349843
%%humdrum-veritas-data 196725045
%%linebreak <none>
%%barnumbers 0
L: 1/8
M: 2/4
N: Derived from pl-kozmzk--mzk-m-159--016_walczynski-franciszek--praeludia-organi-op-5-allegro-moderato.krn
Q: "16. Allegro moderato."
%%staves {1 2}
V: 1 clef=treble
V: 2 clef=bass
K: C
[V:1] z4 & z4 | 
[V:2] z4 & E,D, C,B,,/A,,/ | 
[V:1] z4 & z4 | 
[V:2] ED CB,/A,/ & ^G,,2A,,B,,/C,/ | 
[V:1] z4 & z4 | 
[V:2] !accent!^G,3B, & D,E, F,E,/D,/ | 
[V:1] z4 & AG FE/D/ | 
[V:2] A,4- & ^C,2D,E,/F,/ | 
[V:1] z4 & ^CEDF | 
[V:2] A,4 & G,2F,D, | 
[V:1] ed cB/A/ & E4- | 
[V:2] ^G,2A,B,/C/ & E,4- | 
[V:1] ^GBAc & E4 | 
[V:2] B,DCA, & E,4 | 
[V:1] cB2A- & F2^F2 | 
[V:2] D2C2- & D,2^D,2 | 
[V:1] A^G/^F/ Ee & E4- | 
[V:2] CB,/A,/ ^G,A,/B,/ & E,2-E,^F,/G,/ | 
[V:1] ag fe/d/ & E2A2 | 
[V:2] ^C2DE/F/ & A,4- | 
[V:1] ^cedf & A>G FA | 
[V:2] G^CD2 & A,2D,2 | 
[V:1] e4- & ^GBAc | 
[V:2] B,^G,A,2 & E,D, C,B,,/A,,/ | 
[V:1] ed cB/A/ & E4- | 
[V:2] B,^G, A,C & ^G,,B,, A,,A, | 
[V:1] ^GBAc- & E2-EA- | 
[V:2] ED CB,/A,/ & B,^G, A,F, | 
[V:1] cB/A/B2 & A^G/^F/G2 | 
[V:2] E3D & E,4 | 
[V:1] A4- & A=G FE/D/ | 
[V:2] ^C2DC/B,/ & A,,4- | 
[V:1] A4- & ^C2DC/B,/ | 
[V:2] A,E, F,E,/D,/ & A,,4- | 
[V:1] !fermata!A4 & ^C4 |]  
[V:2] E,4 & !fermata!A,,4 |]  


